packages/icons/src/mask-off.svg

<svg width="15" height="15" viewBox="0 0 15 15" fill="none" xmlns="http://www.w3.org/2000/svg">
  <path
    fill-rule="evenodd"
    clip-rule="evenodd"
    d="M1 2H14V13H1L1 2ZM0 2C0 1.44772 0.447715 1 1 1H14C14.5523 1 15 1.44772 15 2V13C15 13.5523 14.5523 14 14 14H1C0.447715 14 0 13.5523 0 13V2ZM4.875 7.5C4.875 6.05025 6.05025 4.875 7.5 4.875C8.94975 4.875 10.125 6.05025 10.125 7.5C10.125 8.94975 8.94975 10.125 7.5 10.125C6.05025 10.125 4.875 8.94975 4.875 7.5ZM7.5 3.875C5.49797 3.875 3.875 5.49797 3.875 7.5C3.875 9.50203 5.49797 11.125 7.5 11.125C9.50203 11.125 11.125 9.50203 11.125 7.5C11.125 5.49797 9.50203 3.875 7.5 3.875Z"
    fill="currentColor"
  />
</svg>

<svg xmlns="http://www.w3.org/2000/svg" width="15" height="15" fill="none"><path fill="currentColor" fill-rule="evenodd" d="M1 2h13v11H1zM0 2a1 1 0 0 1 1-1h13a1 1 0 0 1 1 1v11a1 1 0 0 1-1 1H1a1 1 0 0 1-1-1zm4.875 5.5a2.625 2.625 0 1 1 5.25 0 2.625 2.625 0 0 1-5.25 0M7.5 3.875a3.625 3.625 0 1 0 0 7.25 3.625 3.625 0 0 0 0-7.25" clip-rule="evenodd"/></svg>
